X:006
U: ~ = !turn!
%%topmargin 3cm
T:The Bank of Ireland
B:Traditional Irish Fiddle Tunes. Randy Miller and Jack Perron.
Z:Transcribed by Ralph Palmer
R:Reel
M:C|
L:1/8
K:D
ed |: =c2 AB cABG | EGDG EGDB | =c2 AB cABG | Addc dfed |
=c2 AB cABG | EGDG EGDB | (3.=c.c.c AB cABG | Ad{/e}dc d2de ::
Jf2 fd e2 ec | dfed cAAg | Jf2 fd e2 ef | gagf ed d2 |
fgfd efdB | dfed cAAG | Addc defg | afge dfed :|]
